X: 38987
T: Swallow's Tail, The
R: reel
M: 4/4
K: Adorian
gf|eAcA eAcA|Bdef gedB|G2BG dGBG|Bdef g2gf|
eA (3cBA eA (3cBA|Bdef g2fg|afge dBGB|AcBG A2:|
^cd|eaab aged|^cdef gedB|G2 BG DGBG|Bdef g2fg|
eaab aged|(3B^cd ef g2fg|afge dBGB|1 AcBG A2:|2 AcBG A2|

